frontend/src/assest/logo.svg

<?xml version="1.0" encoding="UTF-8" standalone="no" ?>
<!DOCTYPE svg PUBLIC "-//W3C//DTD SVG 1.1//EN" "http://www.w3.org/Graphics/SVG/1.1/DTD/svg11.dtd">
<svg xmlns="http://www.w3.org/2000/svg" xmlns:xlink="http://www.w3.org/1999/xlink" version="1.1" width="1080" height="1080" viewBox="0 0 1080 1080" xml:space="preserve">
<desc>Created with Fabric.js 5.2.4</desc>
<defs>
</defs>
<g transform="matrix(1 0 0 1 540 540)" id="b0623f3d-1a63-425f-9846-a197bdacaebf"  >
<rect style="stroke: none; stroke-width: 1; stroke-dasharray: none; stroke-linecap: butt; stroke-dashoffset: 0; stroke-linejoin: miter; stroke-miterlimit: 4; fill: rgb(255,255,255); fill-rule: nonzero; opacity: 1; visibility: hidden;" vector-effect="non-scaling-stroke"  x="-540" y="-540" rx="0" ry="0" width="1080" height="1080" />
</g>
<g transform="matrix(1 0 0 1 540 540)" id="256f7a76-3dda-44bb-a879-9b7139b64328"  >
</g>
<g transform="matrix(1 0 0 0.96 625.65 540)" style="" id="e5508232-308f-430a-8d25-e3af1bc186a2"  >
		<text xml:space="preserve" font-family="Lato" font-size="105" font-style="normal" font-weight="900" style="stroke: none; stroke-width: 1; stroke-dasharray: none; stroke-linecap: butt; stroke-dashoffset: 0; stroke-linejoin: miter; stroke-miterlimit: 4; fill: rgb(0,0,0); fill-rule: nonzero; opacity: 1; white-space: pre;" ><tspan x="-169.22" y="32.98" >TIGER</tspan></text>
</g>
<g transform="matrix(1.04 0 0 1.04 371.19 526.56)"  >
<!-- Cart -->
<path style="stroke: none; stroke-width: 1; stroke-dasharray: none; stroke-linecap: butt; stroke-dashoffset: 0; stroke-linejoin: miter; stroke-miterlimit: 4; fill: rgb(41,41,41); fill-rule: nonzero; opacity: 1;" vector-effect="non-scaling-stroke"  transform=" translate(-17.1, -37.55)" d="M 30.1 42.5 L 32.800000000000004 30.1 C 32.800000000000004 30 32.800000000000004 29.8 32.7 29.700000000000003 C 32.6 29.6 32.5 29.500000000000004 32.300000000000004 29.500000000000004 L 10 29.500000000000004 L 8.8 25.1 C 8.700000000000001 24.700000000000003 8.3 24.400000000000002 7.9 24.400000000000002 L 2.4 24.400000000000002 C 1.9 24.400000000000002 1.4 24.8 1.4 25.400000000000002 C 1.4 25.900000000000002 1.7999999999999998 26.400000000000002 2.4 26.400000000000002 L 7.1 26.400000000000002 C 7.1 26.400000000000002 12.7 46.7 12.8 46.8 C 12.600000000000001 47.199999999999996 12.5 47.599999999999994 12.5 48 C 12.5 49.5 13.7 50.7 15.2 50.7 C 16.7 50.7 17.9 49.5 17.9 48 C 17.9 47.7 17.9 47.5 17.799999999999997 47.2 L 26.499999999999996 47.2 C 26.399999999999995 47.400000000000006 26.399999999999995 47.7 26.399999999999995 48 C 26.399999999999995 49.5 27.599999999999994 50.7 29.099999999999994 50.7 C 30.599999999999994 50.7 31.799999999999994 49.5 31.799999999999994 48 C 31.799999999999994 46.7 30.799999999999994 45.6 29.599999999999994 45.3 C 29.499999999999993 45.199999999999996 14.399999999999995 45.199999999999996 14.399999999999995 45.199999999999996 L 13.699999999999996 42.8 L 29.599999999999994 42.8 C 29.8 42.9 30 42.7 30.1 42.5 z M 29.1 47 C 29.700000000000003 47 30.1 47.5 30.1 48 C 30.1 48.6 29.6 49 29.1 49 C 28.5 49 28.1 48.5 28.1 48 C 28.1 47.4 28.6 47 29.1 47 z M 15.2 47 C 15.799999999999999 47 16.2 47.5 16.2 48 C 16.2 48.6 15.7 49 15.2 49 C 14.6 49 14.2 48.5 14.2 48 C 14.2 47.4 14.7 47 15.2 47 z" stroke-linecap="round" />
</g>
<!-- hand -->
<g transform="matrix(1.04 0 0 1.04 421 539.9)"  >
<path style="stroke: none; stroke-width: 1; stroke-dasharray: none; stroke-linecap: butt; stroke-dashoffset: 0; stroke-linejoin: miter; stroke-miterlimit: 4; fill: rgb(41,41,41); fill-rule: nonzero; opacity: 1;" vector-effect="non-scaling-stroke"  transform=" translate(-65.15, -50.42)" d="M 98.6 72.4 C 98.3 71.10000000000001 98.3 69 98.3 66.60000000000001 C 98.3 58.900000000000006 98.39999999999999 47.20000000000001 89.5 33.30000000000001 C 89.5 33.30000000000001 89.5 33.30000000000001 89.5 33.30000000000001 L 84.1 24.80000000000001 C 83.19999999999999 23.30000000000001 81.69999999999999 22.30000000000001 80 21.900000000000013 C 78.3 21.500000000000014 76.5 21.80000000000001 75 22.80000000000001 C 75 22.80000000000001 74.9 22.80000000000001 74.9 22.900000000000013 C 74 23.500000000000014 73.30000000000001 24.200000000000014 72.80000000000001 25.100000000000012 C 72.00000000000001 24.50000000000001 71.10000000000001 24.100000000000012 70.20000000000002 23.900000000000013 C 68.40000000000002 23.500000000000014 66.60000000000002 23.80000000000001 65.10000000000002 24.80000000000001 C 65.00000000000003 24.80000000000001 65.00000000000003 24.900000000000013 64.90000000000002 24.900000000000013 C 63.80000000000002 25.700000000000014 62.90000000000002 26.700000000000014 62.40000000000002 28.000000000000014 C 60.50000000000002 27.100000000000016 58.20000000000002 27.200000000000014 56.30000000000002 28.300000000000015 C 56.20000000000002 28.300000000000015 56.100000000000016 28.400000000000016 56.00000000000002 28.400000000000016 C 55.200000000000024 28.900000000000016 54.50000000000002 29.600000000000016 54.00000000000002 30.400000000000016 L 45.300000000000026 16.700000000000017 C 44.300000000000026 15.100000000000017 42.60000000000002 13.900000000000016 40.700000000000024 13.500000000000018 C 38.800000000000026 13.100000000000017 36.90000000000003 13.400000000000018 35.200000000000024 14.500000000000018 C 35.200000000000024 14.500000000000018 35.200000000000024 14.500000000000018 35.10000000000002 14.600000000000017 C 35.10000000000002 14.600000000000017 35.00000000000002 14.600000000000017 35.00000000000002 14.600000000000017 C 33.40000000000002 15.600000000000017 32.200000000000024 17.30000000000002 31.800000000000022 19.200000000000017 C 31.400000000000023 21.100000000000016 31.70000000000002 23.000000000000018 32.800000000000026 24.700000000000017 L 47.300000000000026 47.600000000000016 C 46.60000000000002 47.90000000000001 45.90000000000003 48.40000000000001 45.200000000000024 48.90000000000001 C 44.90000000000003 49.100000000000016 44.50000000000002 49.40000000000001 44.200000000000024 49.600000000000016 C 44.200000000000024 49.600000000000016 44.200000000000024 49.600000000000016 44.200000000000024 49.600000000000016 C 42.50000000000002 50.70000000000002 41.300000000000026 52.40000000000001 40.800000000000026 54.40000000000001 C 40.300000000000026 56.40000000000001 40.700000000000024 58.500000000000014 41.800000000000026 60.20000000000001 L 46.90000000000003 68.20000000000002 C 47.00000000000003 68.30000000000001 47.10000000000003 68.50000000000001 47.200000000000024 68.60000000000002 C 53.300000000000026 77.10000000000002 60.90000000000002 79.30000000000003 66.00000000000003 80.80000000000003 C 67.40000000000003 81.20000000000003 68.60000000000002 81.60000000000002 69.50000000000003 82.00000000000003 C 69.70000000000003 82.10000000000002 69.80000000000003 82.10000000000002 70.00000000000003 82.10000000000002 C 70.00000000000003 82.10000000000002 70.00000000000003 82.10000000000002 70.00000000000003 82.10000000000002 C 72.40000000000003 82.60000000000002 73.10000000000002 83.80000000000003 74.40000000000003 85.90000000000002 L 74.90000000000003 86.60000000000002 C 75.30000000000004 87.20000000000002 75.90000000000003 87.50000000000003 76.60000000000004 87.50000000000003 C 77.00000000000004 87.50000000000003 77.30000000000004 87.40000000000003 77.70000000000003 87.20000000000003 C 78.60000000000004 86.60000000000004 78.90000000000003 85.40000000000003 78.30000000000003 84.50000000000003 L 77.90000000000002 83.80000000000003 C 76.50000000000001 81.50000000000003 75.00000000000001 79.10000000000002 71.00000000000001 78.20000000000003 C 71.00000000000001 78.20000000000003 71.00000000000001 78.20000000000003 71.00000000000001 78.20000000000003 C 69.90000000000002 77.70000000000003 68.70000000000002 77.40000000000003 67.20000000000002 77.00000000000003 C 62.000000000000014 75.50000000000003 55.000000000000014 73.40000000000003 49.500000000000014 64.70000000000003 L 49.500000000000014 64.70000000000003 L 45.4 58 C 44.9 57.2 44.699999999999996 56.2 44.9 55.2 C 45.1 54.2 45.699999999999996 53.400000000000006 46.5 52.900000000000006 C 46.5 52.900000000000006 46.5 52.900000000000006 46.5 52.900000000000006 C 46.9 52.60000000000001 47.3 52.400000000000006 47.6 52.10000000000001 C 48.300000000000004 51.60000000000001 49.300000000000004 51.00000000000001 49.5 50.900000000000006 C 49.5 50.900000000000006 49.6 51.00000000000001 49.9 51.300000000000004 L 55.8 60.60000000000001 C 56.199999999999996 61.20000000000001 56.8 61.50000000000001 57.5 61.50000000000001 C 57.9 61.50000000000001 58.2 61.400000000000006 58.6 61.20000000000001 C 59.5 60.60000000000001 59.800000000000004 59.40000000000001 59.2 58.50000000000001 L 53.300000000000004 49.2 C 53.300000000000004 49.2 53.300000000000004 49.2 53.300000000000004 49.2 C 53.300000000000004 49.2 53.300000000000004 49.2 53.300000000000004 49.2 L 36.300000000000004 22.500000000000004 C 35.800000000000004 21.800000000000004 35.7 20.900000000000002 35.900000000000006 20.000000000000004 C 36.10000000000001 19.100000000000005 36.60000000000001 18.400000000000002 37.400000000000006 17.900000000000002 C 37.400000000000006 17.900000000000002 37.400000000000006 17.900000000000002 37.50000000000001 17.8 C 37.50000000000001 17.8 37.60000000000001 17.8 37.60000000000001 17.8 C 38.30000000000001 17.3 39.20000000000001 17.2 40.10000000000001 17.400000000000002 C 41.00000000000001 17.6 41.70000000000001 18.1 42.20000000000001 18.900000000000002 L 54.20000000000001 37.8 L 54.20000000000001 37.8 L 54.20000000000001 37.8 L 59.80000000000001 46.599999999999994 C 60.20000000000001 47.199999999999996 60.80000000000001 47.49999999999999 61.500000000000014 47.49999999999999 C 61.90000000000001 47.49999999999999 62.20000000000002 47.39999999999999 62.600000000000016 47.199999999999996 C 63.500000000000014 46.599999999999994 63.80000000000002 45.4 63.20000000000002 44.49999999999999 L 57.600000000000016 35.69999999999999 C 56.80000000000002 34.39999999999999 57.20000000000002 32.69999999999999 58.500000000000014 31.79999999999999 C 58.500000000000014 31.79999999999999 58.500000000000014 31.79999999999999 58.500000000000014 31.79999999999999 C 59.80000000000001 30.99999999999999 61.500000000000014 31.39999999999999 62.40000000000001 32.69999999999999 L 68.00000000000001 41.499999999999986 C 68.40000000000002 42.09999999999999 69.00000000000001 42.399999999999984 69.70000000000002 42.399999999999984 C 70.10000000000002 42.399999999999984 70.40000000000002 42.29999999999998 70.80000000000001 42.09999999999999 C 71.70000000000002 41.499999999999986 72.00000000000001 40.29999999999999 71.4 39.399999999999984 L 66.5 32 C 66.5 32 66.5 32 66.5 32 C 66.1 31.4 66 30.6 66.1 29.9 C 66.3 29.2 66.69999999999999 28.5 67.3 28.099999999999998 C 67.3 28.099999999999998 67.3 28.099999999999998 67.3 28.099999999999998 C 67.89999999999999 27.7 68.7 27.599999999999998 69.39999999999999 27.7 C 70.1 27.9 70.8 28.3 71.19999999999999 28.9 L 73.1 31.799999999999997 C 73.1 31.799999999999997 73.1 31.799999999999997 73.1 31.799999999999997 C 73.1 31.799999999999997 73.1 31.799999999999997 73.1 31.799999999999997 L 76.89999999999999 37.699999999999996 C 77.3 38.3 77.89999999999999 38.599999999999994 78.6 38.599999999999994 C 79 38.599999999999994 79.3 38.49999999999999 79.69999999999999 38.3 C 80.6 37.699999999999996 80.89999999999999 36.5 80.29999999999998 35.599999999999994 L 76.49999999999999 29.699999999999996 L 76.49999999999999 29.699999999999996 C 76.09999999999998 29.099999999999994 75.99999999999999 28.399999999999995 76.19999999999999 27.699999999999996 C 76.39999999999999 26.999999999999996 76.79999999999998 26.399999999999995 77.29999999999998 26.099999999999994 C 77.29999999999998 26.099999999999994 77.29999999999998 26.099999999999994 77.29999999999998 26.099999999999994 C 77.89999999999998 25.699999999999996 78.59999999999998 25.599999999999994 79.29999999999998 25.799999999999994 C 79.99999999999999 25.999999999999993 80.59999999999998 26.399999999999995 80.89999999999998 26.899999999999995 L 86.29999999999998 35.39999999999999 C 94.59999999999998 48.39999999999999 94.49999999999999 59.39999999999999 94.49999999999999 66.6 C 94.49999999999999 69.39999999999999 94.49999999999999 71.6 94.89999999999999 73.3 C 95.1 74.2 95.89999999999999 74.8 96.8 74.8 C 97 74.8 97.1 74.8 97.3 74.7 C 98.2 74.5 98.9 73.4 98.6 72.4 z" stroke-linecap="round" />
</g>

</svg>

<svg width="370.16679528778167" height="155.08501865265873"
    viewBox="0 0 370.16679528778167 155.08501865265873" class="css-1j8o68f">
    <defs id="SvgjsDefs1029"></defs>
    <g id="SvgjsG1030" featurekey="symbolFeature-0"
        transform="matrix(1.0366270169158764,0,0,1.0366270169158764,-1.4512779225426833,25.1808949373991)"
        fill="#292929">
        <path xmlns="http://www.w3.org/2000/svg"
            d="M30.1,42.5l2.7-12.4c0-0.1,0-0.3-0.1-0.4c-0.1-0.1-0.2-0.2-0.4-0.2H10l-1.2-4.4c-0.1-0.4-0.5-0.7-0.9-0.7H2.4  c-0.5,0-1,0.4-1,1c0,0.5,0.4,1,1,1h4.7c0,0,5.6,20.3,5.7,20.4c-0.2,0.4-0.3,0.8-0.3,1.2c0,1.5,1.2,2.7,2.7,2.7s2.7-1.2,2.7-2.7  c0-0.3,0-0.5-0.1-0.8h8.7c-0.1,0.2-0.1,0.5-0.1,0.8c0,1.5,1.2,2.7,2.7,2.7c1.5,0,2.7-1.2,2.7-2.7c0-1.3-1-2.4-2.2-2.7  c-0.1-0.1-15.2-0.1-15.2-0.1l-0.7-2.4h15.9C29.8,42.9,30,42.7,30.1,42.5z M29.1,47c0.6,0,1,0.5,1,1c0,0.6-0.5,1-1,1  c-0.6,0-1-0.5-1-1C28.1,47.4,28.6,47,29.1,47z M15.2,47c0.6,0,1,0.5,1,1c0,0.6-0.5,1-1,1c-0.6,0-1-0.5-1-1  C14.2,47.4,14.7,47,15.2,47z"></path>
        <path xmlns="http://www.w3.org/2000/svg"
            d="M98.6,72.4c-0.3-1.3-0.3-3.4-0.3-5.8c0-7.7,0.1-19.4-8.8-33.3c0,0,0,0,0,0l-5.4-8.5c-0.9-1.5-2.4-2.5-4.1-2.9  c-1.7-0.4-3.5-0.1-5,0.9c0,0-0.1,0-0.1,0.1c-0.9,0.6-1.6,1.3-2.1,2.2c-0.8-0.6-1.7-1-2.6-1.2c-1.8-0.4-3.6-0.1-5.1,0.9  c-0.1,0-0.1,0.1-0.2,0.1c-1.1,0.8-2,1.8-2.5,3.1c-1.9-0.9-4.2-0.8-6.1,0.3c-0.1,0-0.2,0.1-0.3,0.1c-0.8,0.5-1.5,1.2-2,2l-8.7-13.7  c-1-1.6-2.7-2.8-4.6-3.2c-1.9-0.4-3.8-0.1-5.5,1c0,0,0,0-0.1,0.1c0,0-0.1,0-0.1,0c-1.6,1-2.8,2.7-3.2,4.6c-0.4,1.9-0.1,3.8,1,5.5  l14.5,22.9c-0.7,0.3-1.4,0.8-2.1,1.3c-0.3,0.2-0.7,0.5-1,0.7c0,0,0,0,0,0c-1.7,1.1-2.9,2.8-3.4,4.8s-0.1,4.1,1,5.8l5.1,8  c0.1,0.1,0.2,0.3,0.3,0.4c6.1,8.5,13.7,10.7,18.8,12.2c1.4,0.4,2.6,0.8,3.5,1.2c0.2,0.1,0.3,0.1,0.5,0.1c0,0,0,0,0,0  c2.4,0.5,3.1,1.7,4.4,3.8l0.5,0.7c0.4,0.6,1,0.9,1.7,0.9c0.4,0,0.7-0.1,1.1-0.3c0.9-0.6,1.2-1.8,0.6-2.7l-0.4-0.7  c-1.4-2.3-2.9-4.7-6.9-5.6c0,0,0,0,0,0c-1.1-0.5-2.3-0.8-3.8-1.2c-5.2-1.5-12.2-3.6-17.7-12.3l0,0L45.4,58c-0.5-0.8-0.7-1.8-0.5-2.8  c0.2-1,0.8-1.8,1.6-2.3c0,0,0,0,0,0c0.4-0.3,0.8-0.5,1.1-0.8c0.7-0.5,1.7-1.1,1.9-1.2c0,0,0.1,0.1,0.4,0.4l5.9,9.3  c0.4,0.6,1,0.9,1.7,0.9c0.4,0,0.7-0.1,1.1-0.3c0.9-0.6,1.2-1.8,0.6-2.7l-5.9-9.3c0,0,0,0,0,0c0,0,0,0,0,0l-17-26.7  c-0.5-0.7-0.6-1.6-0.4-2.5c0.2-0.9,0.7-1.6,1.5-2.1c0,0,0,0,0.1-0.1c0,0,0.1,0,0.1,0c0.7-0.5,1.6-0.6,2.5-0.4  c0.9,0.2,1.6,0.7,2.1,1.5l12,18.9l0,0l0,0l5.6,8.8c0.4,0.6,1,0.9,1.7,0.9c0.4,0,0.7-0.1,1.1-0.3c0.9-0.6,1.2-1.8,0.6-2.7l-5.6-8.8  c-0.8-1.3-0.4-3,0.9-3.9c0,0,0,0,0,0c1.3-0.8,3-0.4,3.9,0.9l5.6,8.8c0.4,0.6,1,0.9,1.7,0.9c0.4,0,0.7-0.1,1.1-0.3  c0.9-0.6,1.2-1.8,0.6-2.7L66.5,32c0,0,0,0,0,0c-0.4-0.6-0.5-1.4-0.4-2.1c0.2-0.7,0.6-1.4,1.2-1.8c0,0,0,0,0,0  c0.6-0.4,1.4-0.5,2.1-0.4c0.7,0.2,1.4,0.6,1.8,1.2l1.9,2.9c0,0,0,0,0,0c0,0,0,0,0,0l3.8,5.9c0.4,0.6,1,0.9,1.7,0.9  c0.4,0,0.7-0.1,1.1-0.3c0.9-0.6,1.2-1.8,0.6-2.7l-3.8-5.9l0,0c-0.4-0.6-0.5-1.3-0.3-2c0.2-0.7,0.6-1.3,1.1-1.6c0,0,0,0,0,0  c0.6-0.4,1.3-0.5,2-0.3c0.7,0.2,1.3,0.6,1.6,1.1l5.4,8.5c8.3,13,8.2,24,8.2,31.2c0,2.8,0,5,0.4,6.7c0.2,0.9,1,1.5,1.9,1.5  c0.2,0,0.3,0,0.5-0.1C98.2,74.5,98.9,73.4,98.6,72.4z"></path>
    </g>
    <g id="SvgjsG1031" featurekey="nameFeature-0"
        transform="matrix(3.1490010125155847,0,0,3.1490010125155847,117.1067759560417,-33.25345501665937)"
        fill="#292929">
        <path
            d="M20.64 40.12 c0.6 0 1.16 -0.28 1.36 -0.44 l0 0.24 c-0.48 0.28 -1.28 0.48 -2.04 0.48 c-2.32 0 -6.48 -0.32 -7.16 -3.72 c-0.76 1.6 -1.92 2.88 -3.6 3.36 c-3 0.92 -8.12 0.56 -7.96 -3.8 c0.2 -4.96 5.72 -4.36 9.72 -5.72 c0.76 -0.28 1.32 -0.56 1.72 -0.88 l0 -3.68 c0 -3.4 0.2 -5.96 -2.72 -5.96 c-2.6 0 -4.24 0.92 -4.84 2.16 c-0.56 1.28 0.72 1.8 1.04 2.92 c0.32 1.08 -0.56 2.28 -1.96 2 c-1.2 -0.24 -1.96 -1.72 -1.28 -3.36 c0.64 -1.48 2.88 -3.88 7.16 -3.88 c3.76 0 8.64 1.28 8.64 6.68 l0 9.32 c0 2.72 0.08 4.28 1.92 4.28 z M9.88 39.6 c1.36 -0.64 2.24 -1.84 2.88 -3.2 c-0.04 -0.24 -0.08 -0.48 -0.08 -0.76 l0 -5.76 c-0.36 0.24 -0.88 0.48 -1.52 0.72 c-1.96 0.72 -4.24 1.08 -4.48 4.72 c-0.28 3.64 0.76 5.52 3.2 4.28 z M55.494 27.2 l0 8.2 c0 3.28 0.4 4.4 2.52 4.4 l0 0.2 l-11.04 0 l0 -0.2 c2.12 0 2.48 -1.16 2.52 -4.4 l0 -8.96 c0 -2.72 0.16 -6.2 -2.72 -6.2 c-1.84 0 -3.64 1.6 -4.64 3.8 c0.32 0.92 0.48 1.96 0.48 3.16 l0 8.2 c0 3.24 0.36 4.4 2.52 4.4 l0 0.2 l-11.08 0 l0 -0.2 c2.16 0 2.52 -1.16 2.52 -4.4 l0 -8.96 c0 -2.72 0.2 -6.2 -2.68 -6.2 c-1.6 0 -3.2 1.16 -4.12 2.96 c-0.04 0.84 -0.08 12.2 -0.08 12.2 c0.04 3.24 0.4 4.4 2.52 4.4 l0 0.2 l-11.04 0 l0 -0.2 c2.12 0 2.52 -1.16 2.52 -4.4 l0 -10.6 c0 -3.24 -0.4 -4.36 -2.52 -4.36 l0 -0.2 l9.2 0 l0 0.2 c-0.24 0.12 -0.44 0.84 -0.56 2.36 c1.2 -1.84 2.56 -2.96 5.72 -2.96 s5.52 1.24 6.52 4 c1.32 -2.48 2.92 -4 6.36 -4 c4.28 0 7.08 2.24 7.08 7.36 z M66.348 35.4 l0 0.04 c0 3.24 0.36 4.36 2.52 4.36 l0 0.2 l-11.08 0 l0 -0.2 c2.16 0 2.52 -1.16 2.52 -4.4 l0 -10.6 c0 -3.24 -0.36 -4.36 -2.52 -4.36 l0 -0.2 l9.2 0 l0 0.2 c-0.36 0.2 -0.64 1.96 -0.64 6 l0 8.96 z M63.308 17.12 c-1.72 0 -3.12 -1.48 -3.12 -3.28 c0 -1.84 1.4 -3.28 3.12 -3.28 c1.76 0 3.16 1.44 3.16 3.28 c0 1.8 -1.4 3.28 -3.16 3.28 z M78.602 40.08 c0.8 0 1.48 -0.28 1.76 -0.4 l0 0.2 c-0.6 0.32 -1.36 0.52 -2.52 0.52 c-2.72 0 -7.36 -0.4 -7.36 -6.32 l0 -13.64 l-1.84 0 l0 -0.2 l1.84 0 l0 -1.48 c2.12 0 5.04 -0.88 5.8 -3.4 l0.08 0 l0.12 0 l0 4.88 l3.56 0 l0 0.2 l-3.56 0 l0 14.44 c0 2.68 0.2 5.2 2.12 5.2 z"></path>
    </g>
    <g id="SvgjsG1032" featurekey="sloganFeature-0"
        transform="matrix(2.0663600877799073,0,0,2.0663600877799073,119.70852494513755,103.66737189459191)"
        fill="#292929">
        <path
            d="M4.9902 20.19531 c-2.2559 0 -4.0039 -0.88867 -4.3652 -2.793 l2.3535 -0.66406 c0.30273 1.0742 1.0645 1.4941 2.0117 1.4941 c0.69336 0 1.4453 -0.21484 1.4258 -1.0059 c-0.0097656 -1.0449 -1.5918 -1.1328 -3.1836 -1.6992 c-1.2012 -0.41992 -2.3535 -1.0645 -2.3535 -2.7539 c0 -2.0605 1.709 -3.0078 3.9355 -3.0078 c1.9531 0 3.584 0.74219 3.9746 2.6563 l-2.1777 0.48828 c-0.30273 -0.9375 -0.9668 -1.2695 -1.7871 -1.2695 c-0.74219 0 -1.377 0.26367 -1.377 0.88867 c0 0.79102 1.1621 0.94727 2.4219 1.2891 c1.5527 0.41992 3.252 1.0938 3.252 3.2422 c0 2.3047 -1.9629 3.1348 -4.1309 3.1348 z M15.77392890625 9.766 c2.2461 0 3.5938 1.25 3.5938 3.7598 l0 6.4746 l-2.8223 0 l0 -6.0156 c0 -1.4746 -0.82031 -1.9629 -1.8262 -1.9629 c-1.0449 0 -2.1875 0.51758 -2.207 2.4414 l0 5.5371 l-2.8125 0 l0 -15 l2.8125 0 l0 6.1621 c0.71289 -0.86914 1.8359 -1.3965 3.2617 -1.3965 z M25.3076046875 20.19531 c-3.1934 0 -5.498 -1.9434 -5.498 -5.2246 c0 -3.2617 2.2852 -5.2051 5.498 -5.2051 c3.2324 0 5.5078 1.9434 5.5078 5.2051 c0 3.2813 -2.2852 5.2246 -5.5078 5.2246 z M25.2783046875 17.959 c1.6309 0 2.7441 -1.1914 2.7441 -2.9883 s-1.1133 -2.9883 -2.7441 -2.9883 c-1.5723 0 -2.6758 1.1914 -2.6758 2.9883 s1.1035 2.9883 2.6758 2.9883 z M37.35112421875 9.766 c2.6465 0 4.834 1.9434 4.834 5.2344 s-2.1875 5.2344 -4.834 5.2344 c-1.3086 0 -2.4805 -0.50781 -3.0762 -1.4258 l0 6.0742 l-2.8125 0 l0 -14.922 l2.666 0 l0.078125 1.3477 c0.55664 -0.99609 1.7773 -1.543 3.1445 -1.543 z M36.71632421875 17.9004 c1.4746 0 2.6563 -1.0742 2.6563 -2.9004 s-1.1816 -2.9004 -2.6563 -2.9004 c-1.5039 0 -2.6758 1.1426 -2.6758 2.9004 s1.1719 2.9004 2.6758 2.9004 z M52.68799140625 9.766 c2.2461 0 3.5938 1.25 3.5938 3.7598 l0 6.4746 l-2.8223 0 l0 -6.0156 c0 -1.4746 -0.82031 -1.9629 -1.8262 -1.9629 c-1.0449 0 -2.1875 0.51758 -2.207 2.4414 l0 5.5371 l-2.8125 0 l0 -15 l2.8125 0 l0 6.1621 c0.71289 -0.86914 1.8359 -1.3965 3.2617 -1.3965 z M66.9868671875 14.834 l-0.029297 0.67383 l-7.4414 0 c0.11719 1.6699 1.2305 2.4707 2.5684 2.4707 c1.0059 0 1.7871 -0.46875 2.168 -1.3574 l2.5781 0.38086 c-0.66406 2.0313 -2.4707 3.1934 -4.7266 3.1934 c-3.2422 0 -5.3613 -1.9141 -5.3613 -5.2148 s2.1777 -5.2344 5.2734 -5.2344 c2.8418 0 4.9609 1.5723 4.9707 5.0879 z M62.0361671875 11.7383 c-1.2793 0 -2.168 0.5957 -2.4414 1.9336 l4.6094 0 c-0.14648 -1.2793 -1.0156 -1.9336 -2.168 -1.9336 z M70.37842734375 11.5527 c0.50781 -0.88867 1.8262 -1.709 3.2813 -1.709 l0 2.5098 c-2.1289 0 -3.1445 0.625 -3.1445 2.7539 l0 4.8926 l-2.832 0 l0 -10.039 l2.6953 0 l0 1.5918 z M83.310109375 14.834 l-0.029297 0.67383 l-7.4414 0 c0.11719 1.6699 1.2305 2.4707 2.5684 2.4707 c1.0059 0 1.7871 -0.46875 2.168 -1.3574 l2.5781 0.38086 c-0.66406 2.0313 -2.4707 3.1934 -4.7266 3.1934 c-3.2422 0 -5.3613 -1.9141 -5.3613 -5.2148 s2.1777 -5.2344 5.2734 -5.2344 c2.8418 0 4.9609 1.5723 4.9707 5.0879 z M78.359409375 11.7383 c-1.2793 0 -2.168 0.5957 -2.4414 1.9336 l4.6094 0 c-0.14648 -1.2793 -1.0156 -1.9336 -2.168 -1.9336 z"></path>
    </g>
</svg>
